!!!COM: Palestrina, Giovanni Perluigi da
!!!OPR: Missa O Regem coeli
!!!OMD: Benedictus
!!!OTL: First Section
**kern	**kern	**kern
*Itenor	*Icalto	*Icant
!Tenor	!Altus	!Cantus
*clefGv2	*clefG2	*clefG2
*k[b-]	*k[b-]	*k[b-]
*G:dor	*G:dor	*G:dor
*M4/2	*M4/2	*M4/2
=1	=1	=1
0r	1g	0r
.	2f	.
.	[2g	.
=2	=2	=2
0r	4g]	1r
.	4f	.
.	4g	.
.	4e-	.
.	2f	1dd
.	2g	.
=3	=3	=3
0r	2e-	2cc
.	2d	2.dd
.	1g	.
.	.	4cc
.	.	4dd
.	.	4b-
=4	=4	=4
0r	2a	2cc
.	2.b-	2dd
.	.	1b-
.	4a	.
.	[2g	.
=5	=5	=5
1d	2g]	2a
.	2f	2dd
2c	2e	2ee
[2d	2d	[2ff
=6	=6	=6
4d]	0a	4ff]
4c	.	4ee
4d	.	4ff
4B-	.	4dd
2c	.	2ee
2d	.	[2ff
=7	=7	=7
1B-	1d	4ff]
.	.	4ee
.	.	1dd
1A	1e	.
.	.	2cc
=8	=8	=8
1r	1d	2b-
.	.	4a
.	.	4g
1d	1r	1a
=9	=9	=9
2c	1a	0r
2d	.	.
2B-	2g	.
2c	[2a	.
=10	=10	=10
4d	4a]	1dd
4e	4g	.
4f	4a	.
4d	4f	.
2e	2g	2cc
2f	2a	[2dd
=11	=11	=11
1g	1b-	4dd]
.	.	4cc
.	.	4dd
.	.	4b-
2f	2a	2cc
2B-	[2b-	2dd
=12	=12	=12
1e-	4b-]	1g
.	4a	.
.	1g	.
1d	.	1a
.	2f#	.
=13	=13	=13
0G	[0g	1g
.	.	2r
.	.	2g
=14	=14	=14
2r	1g]	2.b-
2G	.	.
.	.	4cc
2.B-	2r	4dd
.	.	4ee
.	2d	[2ff
4c	.	.
=15	=15	=15
4d	2.f	4ff]
4e	.	4ee
2.f	.	2dd
.	4g	.
.	1a	2cc
4e	.	.
2d	.	2ff
=16	=16	=16
2c	1a	2ee
1f	.	2.dd
.	1r	.
.	.	4cc
2e	.	2cc
=17	=17	=17
2.d	2r	2b-
.	2d	2a
4c	.	.
1B-	2.f	1dd
.	4g	.
=18	=18	=18
0A	4a	1cc
.	4g	.
.	4a	.
.	4b-	.
.	2.cc	2r
.	.	2a
.	4b-	.
=19	=19	=19
0r	2a	2.cc
.	2f	.
.	.	4dd
.	2g	2ee
.	4f	[2ff
.	4g	.
=20	=20	=20
2r	4a	4ff]
.	4g	4ee
2B-	2.b-	1dd
2B-	.	.
.	4a	.
2c	[2g	4cc
.	.	4b-
=21	=21	=21
2.d	2g]	1a
.	2f#	.
4c	.	.
4B-	1g	2r
4A	.	.
4G	.	2b-
4F	.	.
=22	=22	=22
2G	2r	2b-
2A	2f	2cc
2B-	2f	1dd
2B-	2g	.
=23	=23	=23
1F	2.a	1.cc
.	8g	.
.	8f	.
1r	2e	.
.	[2g	2b-
=24	=24	=24
2r	4g]	2a
.	4f	.
2B-	1f	4g
.	.	4f
2B-	.	2g
2c	2e	2g
=25	=25	=25
2.d	0f	1f
8c	.	.
8B-	.	.
2A	.	2r
[2B-	.	2b-
=26	=26	=26
4B-]	0r	2b-
4G	.	.
2A	.	2cc
4B-	.	2.dd
4c	.	.
4d	.	.
4e	.	8cc
.	.	8b-
=27	=27	=27
2f	1r	2a
2.g	.	2.b-
.	2r	.
4f	.	4a
[2f	2B-	2f
=28	=28	=28
2f]	2B-	2g
2e	2c	2g
2f	4d	1f
.	4e	.
2B-	4f	.
.	4d	.
=29	=29	=29
2c	2e	2r
2d	2f	2b-
2.e-	1g	2b-
.	.	2cc
4e-	.	.
=30	=30	=30
1d	2r	2.dd
.	2f	.
.	.	8cc
.	.	8b-
1r	2f	2a
.	2g	2b-
=31	=31	=31
2r	1.a	4f
.	.	4g
2F	.	4a
.	.	4b-
2F	.	4cc
.	.	4a
2G	4g	2b-
.	4f	.
=32	=32	=32
2.A	2e	4a
.	.	4b-
.	2.a	4cc
4B-	.	4dd
2c	.	2ee
.	4g	.
[2d	4f	[2ff
.	4e	.
=33	=33	=33
2d]	2f	4ff]
.	.	4ee
2G	2g	1dd
1A	2e	.
.	2e	2cc#
=34	=34	=34
[0d	[0d	[0dd
=35	=35	=35
0d]	0d]	0dd]
*-	*-	*-
!!!CDT: 1525/^1526/-1594/2/2
!!!OCY: Italia
!!!AGN: Mass (Parody)
!!!AST: renaissance, vocal
!!!ASW: Motet 1532 (Silva)
!!!PWK: Masses, Book I
!!!RNB: Cadence finals: D
!!!YOR: Le Opere Complete, v. 1, p. 35
!!!YOO: Rome, Italy: Fratelli Scalera
!!!END: 1992//
!!!EED: John Miller
!!!YEC: Copyright 2000, John Miller
!!!YEN: United States of America
!!!YEM: Rights to all derivative electronic formats reserved.
!!!YEM: Refer to licensing agreement for further details.
!!!YEM: This file must be accompanied by the licensing agreement.
!!!YEM: A copy of the licensing agreement may be found at http://www.music-cog.ohio-state.edu/HumdrumDatabases/Palestrina/license.txt
!!!EMD: converted to Humdrum by Bret Aarden
